icons/ppe-face-shield-alt.svg

<svg width="48" height="48" viewBox="0 0 48 48" fill="none" xmlns="http://www.w3.org/2000/svg">
<path fill-rule="evenodd" clip-rule="evenodd" d="M24.8066 6.32325C15.8044 4.51088 6.77272 10.5416 6.04702 19.6962C6.01648 19.792 6 19.8941 6 20.0001C6 20.0622 6.00566 20.1229 6.01649 20.1819C6.00736 20.3782 6.00202 20.5758 6.00056 20.7748C5.98231 22.893 6.41404 24.9909 7.26707 26.9283C8.05926 28.7275 9.19792 30.3498 10.6161 31.7025V41.0001C10.6161 41.5524 11.0638 42.0001 11.6161 42.0001C12.1684 42.0001 12.6161 41.5524 12.6161 41.0001V31.2654C12.6161 30.9814 12.4953 30.7108 12.2839 30.5211C10.9228 29.2999 9.83633 27.8003 9.09749 26.1223C8.38666 24.5079 8.01347 22.7644 8.00036 21.0001H22V26.2149C22 29.331 23.2006 32.3252 25.3469 34.5375C27.4942 36.7508 30.4132 38.0001 33.4634 38.0001H42V19.163C42 17.2729 41.2718 15.4543 39.9665 14.1088C38.6602 12.7623 36.8818 12.0001 35.0209 12.0001H32.7858C32.1228 10.8891 31.351 9.89061 30.4127 9.04C28.9511 7.71498 27.1334 6.79229 24.8066 6.32325ZM29.0694 10.5218C29.551 10.9583 29.9881 11.4511 30.3913 12.0001H11.7173C14.8554 8.88184 19.5958 7.3144 24.4119 8.28391C26.4179 8.68832 27.8987 9.46038 29.0694 10.5218ZM8.13984 19.0001C8.41635 17.159 9.09255 15.4714 10.0714 14.0001H22V19.0001H8.13984ZM31.965 14.7468C31.8474 14.4906 31.7274 14.2417 31.6046 14.0001H24V26.2149C24 28.8197 25.0042 31.312 26.7824 33.1449C28.5596 34.9767 30.9635 36.0001 33.4634 36.0001H40V19.163C40 17.7841 39.4683 16.4676 38.531 15.5015C37.5948 14.5364 36.3315 14.0001 35.0209 14.0001H33.8212C34.0384 14.5106 34.149 15.0606 34.146 15.6161V18.6606C34.2092 18.7804 34.2962 18.9458 34.4025 19.1494C34.6354 19.5954 34.9616 20.2251 35.3349 20.9611C36.0802 22.4304 37.0195 24.3347 37.7813 26.0496L37.7817 26.0505C37.9532 26.4376 38.0254 26.8614 37.9921 27.2834C37.9588 27.7053 37.8209 28.1126 37.5906 28.4679C37.3603 28.8233 37.0448 29.1156 36.6724 29.3178C36.3006 29.5196 35.8841 29.625 35.461 29.624H34.1581V31.7173C34.1581 32.2695 33.7103 32.7173 33.1581 32.7173C32.6058 32.7173 32.1581 32.2695 32.1581 31.7173V28.624C32.1581 28.0717 32.6058 27.624 33.1581 27.624H35.4621L35.4653 27.624C35.5533 27.6243 35.6402 27.6024 35.7182 27.5601C35.7962 27.5177 35.8631 27.4561 35.9122 27.3803C35.9614 27.3044 35.9911 27.217 35.9983 27.1259C36.0055 27.035 35.9899 26.9438 35.9532 26.8608C35.2121 25.1925 34.2908 23.3238 33.5513 21.8659C33.1822 21.1382 32.8598 20.5157 32.6298 20.0753C32.5148 19.8552 32.423 19.6806 32.36 19.5614L32.2879 19.4252L32.2638 19.3798C32.1867 19.2351 32.146 19.073 32.146 18.909V15.6071C32.1479 15.3104 32.0861 15.0169 31.965 14.7468ZM31.965 14.7468L31.9666 14.7502L32.8754 14.3334L31.9636 14.7438L31.965 14.7468Z" fill="black"/>
<path d="M28 38.0001C28.5523 38.0001 29 38.4478 29 39.0001V41.0001C29 41.5524 28.5523 42.0001 28 42.0001C27.4477 42.0001 27 41.5524 27 41.0001V39.0001C27 38.4478 27.4477 38.0001 28 38.0001Z" fill="black"/>
</svg>

<svg
  xmlns="http://www.w3.org/2000/svg"
  width="24"
  height="24"
  viewBox="0 0 24 24"
  fill="none"
  stroke="currentColor"
  stroke-width="2"
  stroke-linecap="round"
  stroke-linejoin="round"
>
  <path
    fill-rule="evenodd"
    d="M24.807 6.323c-9.003-1.812-18.034 4.219-18.76 13.373a1 1 0 0 0-.03.486q-.015.294-.016.593a14.95 14.95 0 0 0 1.266 6.153c.792 1.8 1.93 3.422 3.35 4.775V41a1 1 0 1 0 2 0v-9.735a1 1 0 0 0-.333-.744 12.9 12.9 0 0 1-3.187-4.399A12.95 12.95 0 0 1 8 21h14v5.215c0 3.116 1.2 6.11 3.347 8.323S30.413 38 33.463 38H42V19.163a7.26 7.26 0 0 0-2.033-5.054A6.9 6.9 0 0 0 35.02 12h-2.235c-.663-1.11-1.435-2.11-2.373-2.96-1.462-1.325-3.28-2.248-5.606-2.717m4.262 4.199q.721.655 1.322 1.478H11.717c3.138-3.118 7.879-4.686 12.695-3.716 2.006.404 3.487 1.176 4.657 2.238M8.14 19a12.3 12.3 0 0 1 1.932-5H22v5zm23.826-4.253a21 21 0 0 0-.36-.747H24v12.215c0 2.605 1.004 5.097 2.782 6.93S30.964 36 33.463 36H40V19.163a5.26 5.26 0 0 0-1.469-3.661A4.9 4.9 0 0 0 35.021 14h-1.2c.217.51.328 1.06.325 1.616v3.045l.257.488c.232.446.559 1.076.932 1.812.745 1.47 1.685 3.374 2.446 5.089a2.55 2.55 0 0 1-1.109 3.268 2.5 2.5 0 0 1-1.211.306h-1.303v2.093a1 1 0 0 1-2 0v-3.093a1 1 0 0 1 1-1h2.307a.53.53 0 0 0 .447-.244.55.55 0 0 0 .041-.52c-.74-1.668-1.662-3.536-2.402-4.994a171 171 0 0 0-1.191-2.305l-.072-.136-.024-.045a1 1 0 0 1-.118-.471v-3.302a2.1 2.1 0 0 0-.181-.86m0 0 .002.003.908-.417-.911.41z"
    clip-rule="evenodd"
  />
  <path d="M28 38a1 1 0 0 1 1 1v2a1 1 0 1 1-2 0v-2a1 1 0 0 1 1-1" />
</svg>
